X: 8
T: The Rainy Day
R: reel
M: 4/4
L: 1/8
K: Gmaj
G|:EAAG A3B|cded cBAd|BG G2 dG G2|(3Bcd gd edBG|
EAAG A3B|cBAB cdef|g2 af gedB|1 GBdB BAAG:|2 GBdB BA (3Bcd||
|:eaag eaag|edef g2 ag|dg g2 ag g2|bgaf gedg|
eaag eaag|edef g2 af|gedB GA (3Bcd|1 gedB BA (3Bcd:|2 gedB BAAG||

